X:1
T:Ludhiana, 88.84
T:Ludhiana, 88.84
T:J. H. Leslie, 1882
T:Public Domain Courtesy of the Cyber Hymnal™
C:J. H. Leslie, 1882
Z:Public Domain
Z:Courtesy of the Cyber Hymnal™
%%score ( 1 2 ) ( 3 4 )
L:1/8
Q:1/4=98
M:6/8
K:Ab
V:1 treble 
V:2 treble 
V:3 bass 
V:4 bass 
V:1
 [CE] | [CA]2 [CA] [EA]2 [FB] | [Ec]2 [DB] [CA]2 [CE] | [EB]2 [EB] [EB]2 [Ec] | %4
 [Fd]2 [Ec] [EB]2 E | [Ec]2 [Ec] [Ec]2 [Ed] | [Ee]2 [Fd] [Ec]2 [EA] | [FB]3 [EG]3 | [EA]3- [EA]2 |] %9
V:2
 x | x6 | x6 | x6 | x5 E | x6 | x6 | x6 | x5 |] %9
V:3
 [A,,A,] | [A,,E,]2 [A,,E,] [C,A,]2 [D,A,] | [E,A,]2 [E,G,] A,2 A, | [E,G,]2 [E,G,] [E,G,]2 A, | %4
 [D,A,]2 [A,,A,] [E,G,]2 [E,G,] | A,2 A, A,2 [A,B,] | [A,C]2 A, A,2 [C,A,] | [D,D]3 [E,B,]3 | %8
 [A,,C]3- [A,,C]2 |] %9
V:4
 x | x6 | x3 A,2 A, | x5 A, | x6 | A,2 A, A,2 x | x2 A, A,2 x | x6 | x5 |] %9

